X:210
T:Bert Ferguson
S:Lissa Schneckenburger - Dance
Z:robin.beech@mcgill.ca
R:jig
M:6/8
L:1/8
K:A
c3 c2B | cBc e2E | FAA BAB | cec B/c/dB |
c3 c2B | cBc e2E | FAA BAF |1 EFG Aed  :|2 EFG Ace |:
f3 fec | efg a2g | f3 fec | fdB Bce |
f3 fed | edc cBA | FAA BAF |1 EFG Ace :|2 EFG Aed |]
